public/img/clients/bibliocommons.svg

<svg xmlns="http://www.w3.org/2000/svg" focusable="false" role="img" viewBox="0 0 200 100" fill="currentColor">
  <path fill-rule="evenodd" d="M27.208 50.154c4.117 0 6.933 2.12 6.933 5.57 0 1.727-.817 2.907-1.937 3.604 2.513.938 3.876 3.058 3.876 5.51 0 3.875-3.03 6.51-7.056 6.51H21.97l-.152-.152v-20.89l.152-.152h5.238zM25.33 58.33h1.878c2.028 0 2.937-.758 2.937-2.424 0-1.453-.91-2.21-2.937-2.21H25.33v4.634zm0 9.475h3.573c1.968 0 3.21-1.03 3.21-2.967 0-1.847-1.242-2.967-3.21-2.967H25.33v5.935-.001zm32.278-17.651l.15.15v20.892l-.15.15h-3.21l-.15-.15v-20.89l.15-.152h3.21zm23.709 0c4.118 0 6.934 2.12 6.934 5.57 0 1.727-.817 2.907-1.937 3.604 2.513.938 3.875 3.058 3.875 5.51 0 3.875-3.027 6.51-7.054 6.51H76.08l-.152-.152v-20.89l.15-.152h5.24-.001zM79.44 58.33h1.877c2.03 0 2.937-.758 2.937-2.424 0-1.453-.908-2.21-2.937-2.21H79.44v4.634zm0 9.475h3.573c1.968 0 3.21-1.03 3.21-2.967 0-1.847-1.242-2.967-3.21-2.967H79.44v5.935-.001zm32.224-17.651l.12.12v17.53h9.115l.12.152v3.27l-.12.12h-12.506l-.12-.12V50.274l.12-.12h3.271zm30.521 0l.152.15v20.892l-.152.15h-3.21l-.15-.15v-20.89l.15-.152h3.21zm39.075 10.142c0 6.146-5.027 11.05-11.204 11.05-6.206 0-11.202-4.904-11.202-11.05 0-6.146 4.996-11.05 11.202-11.05 6.177 0 11.203 4.904 11.203 11.05h.001zm-18.41 0c0 4.118 3.21 7.358 7.206 7.358 3.997 0 7.206-3.24 7.206-7.358 0-4.117-3.21-7.357-7.206-7.357-3.996 0-7.206 3.24-7.206 7.356v.001zM18.543 61.702a6.126 6.126 0 00-3.88-1.404c-2.743 0-5.006 2.246-5.006 5.02 0 2.776 2.263 5.022 5.005 5.022a6.122 6.122 0 003.88-1.404l.083.082v1.09c-1.073.777-2.394 1.24-3.963 1.24-3.386 0-6.11-2.726-6.11-6.03 0-3.302 2.724-6.028 6.11-6.028 1.57 0 2.89.463 3.963 1.24v1.09l-.082.082zm32.951 3.618c0 3.32-2.74 6.027-6.11 6.027S39.27 68.64 39.27 65.32c0-3.32 2.742-6.03 6.11-6.03 3.37 0 6.112 2.71 6.112 6.03h.002zm-11.115 0c0 2.774 2.262 5.02 5.003 5.02 2.76 0 5.02-2.246 5.02-5.02a5.027 5.027 0 00-5.02-5.022c-2.74 0-5.004 2.246-5.004 5.02l.001.002zm22.204-5.534l.165.082 4.443 5.517 4.427-5.517.165-.082h.76l.083.082v11.397l-.083.082h-.81l-.082-.082V61.223l-4.377 5.483h-.165l-4.393-5.483v10.042l-.083.082h-.81l-.082-.082V59.868l.083-.082h.76-.001zm31.327 0l.166.082 4.442 5.517 4.427-5.517.165-.082h.76l.082.082v11.397l-.082.082h-.81l-.082-.082V61.223L98.6 66.706h-.164l-4.394-5.483v10.042l-.082.082h-.81l-.082-.082V59.868l.083-.082h.76-.001zm41.38 5.534c0 3.32-2.742 6.027-6.112 6.027s-6.11-2.708-6.11-6.028c0-3.32 2.74-6.03 6.11-6.03s6.11 2.71 6.11 6.03l.002.001zm-11.116 0c0 2.774 2.263 5.02 5.004 5.02 2.76 0 5.02-2.246 5.02-5.02a5.027 5.027 0 00-5.02-5.022c-2.74 0-5.004 2.246-5.004 5.02v.002zm22.772-5.534l.165.082 7.466 9.96v-9.96l.083-.082h.808l.083.082v11.397l-.082.082h-.86l-.164-.082-7.482-9.96v9.96l-.083.082h-.81l-.082-.082V59.868l.082-.082h.876zm43.136 1.717c-.53-.743-1.124-1.205-2.048-1.205a1.77 1.77 0 00-1.784 1.8c0 2.197 5.5 2.164 5.5 5.698a3.544 3.544 0 01-3.55 3.55c-1.653 0-2.892-.907-3.47-2.393l.694-.513h.166c.495 1.24 1.453 1.9 2.61 1.9 1.386 0 2.443-1.107 2.443-2.544 0-2.642-5.483-2.576-5.483-5.698 0-1.552 1.27-2.808 2.874-2.808 1.32 0 2.312.744 2.89 1.735l-.677.478h-.165zM66 30h1.895v25.998H66V30zm3 0h.473v25.998H69V30zm-4 0h.473v25.998H65V30zm9 0h1.895v17.618H74V30zm-2 0h.406v25.998H72V30zm-17 0h.406v17.618H55V30zm-4 0h.406v25.998H51V30zm9 0h.406v25.998H60V30zm2 0h1.895v25.998H62V30zm-4 0h1.895v17.618H58V30zm-6 0h1.894v17.618H52V30zm36 0h.473v17.618H88V30zm4 0h.473v25.998H92V30zm-3.108-.088V47.53h1.692v8.38h.203V29.912h-1.895zM76 30h1.895v17.618H76V30zm20 0h1.895v25.998H96V30zm-2 0h.406v25.998H94V30zm-15 0h.406v17.618H79V30zm6 0h1.895v17.618H85V30zm-3 0h.406v17.618H82V30zm1 0h.406v17.618H83V30zm-53 0h1.894v17.618H30V30zm-16 0h1.895v25.998H14V30zm3 0h.406v25.998H17V30zm1.384-.088V55.91h1.728v-8.38h.166V29.912h-1.894zM24 30h1.895v17.618H24V30zm-3 0h.406v17.618H21V30zm6 0h.406v17.618H27V30zM8 30h.978v25.998H8V30zm2 0h.406v25.998H10V30zm2 0h.473v25.998H12V30zm28 0h.406v25.998H40V30zm4 0h.406v25.998H44V30zm-3 0h1.894v25.998H41V30zm-13 0h.406v17.618H28V30zm17 0h.406v25.998H45V30zm3 0h1.895v25.998H48V30zm-16 0h.406v17.618H32V30zm67 0h1.895v25.998H99V30zm-64 0h.473v17.618H35V30zm1.384-.088V47.53h.796v8.38h1.098V29.912h-1.894zM169 30h1.895v17.618H169V30zm-7 0h.406v17.618H162V30zm1 0h1.894v17.618H163V30zm-4 0h1.895v17.618H159V30zm12 0h.406v17.618H171V30zm-5 0h.406v17.618H166V30zm-11 0h.406v25.998H155V30zm-4.404-.088V55.91h.686V29.912h-.686zM152 30h1.894v25.998H152V30zm5 0h.473v17.618H157V30zm16 0h.406v17.618H173V30zm1 0h1.894v17.618H174V30zm12 0h1.894v25.998H186V30zm4 0h1.36v25.998H190V30zm-2 0h.406v25.998H188V30zm-7 0h1.895v17.618H181V30zm3 0h.406v25.998H184V30zm-7 0h.406v17.618H177V30zm3 0h.473v17.618H180V30zm-33 0h1.895v25.998H147V30z" clip-rule="evenodd"/>
  <path fill-rule="evenodd" d="M114 30h.473v25.998H114V30zm9 0h1.895v25.998H123V30zm-6 0h.406v25.998H117V30zm-15 0h.406v25.998H102V30zm20 0h.473v25.998H122V30zm-3 0h1.895v25.998H119V30zm26 0h.406v25.998H145V30zm-35 0h1.895v17.618H110V30zm-7 0h.473v25.998H103V30zm2.674-.088V55.91H106v-8.38h.08V29.912h-.406zM108 30h1.895v17.618H108V30zm5 0h.406v17.618H113V30zm28 0h.406v17.618H141V30zm-3 0h1.895v17.618H138V30zm4.687-.088V47.53h1.852v8.38h.04V29.912h-1.893.001zM136 30h.406v25.998H136V30zm-5 0h.406v25.998H131V30zm-3 0h.406v25.998H128V30zm2 0h.406v25.998H130V30zm3 0h1.895v25.998H133V30zm-7 0h.473v25.998H126V30z" clip-rule="evenodd"/>
</svg>

<svg width="200" height="100" viewBox="0 0 200 100" fill="none" xmlns="http://www.w3.org/2000/svg">
<path fill-rule="evenodd" clip-rule="evenodd" d="M27.208 50.154C31.325 50.154 34.141 52.274 34.141 55.724C34.141 57.451 33.324 58.631 32.204 59.328C34.717 60.266 36.08 62.386 36.08 64.838C36.08 68.713 33.05 71.348 29.024 71.348H21.97L21.818 71.196V50.306L21.97 50.154H27.208ZM25.33 58.33H27.208C29.236 58.33 30.145 57.572 30.145 55.906C30.145 54.453 29.235 53.696 27.208 53.696H25.33V58.329V58.33ZM25.33 67.805H28.903C30.871 67.805 32.113 66.775 32.113 64.838C32.113 62.991 30.871 61.871 28.903 61.871H25.33V67.806V67.805ZM57.608 50.154L57.758 50.304V71.196L57.608 71.346H54.398L54.248 71.196V50.306L54.398 50.154H57.608ZM81.317 50.154C85.435 50.154 88.251 52.274 88.251 55.724C88.251 57.451 87.434 58.631 86.314 59.328C88.827 60.266 90.189 62.386 90.189 64.838C90.189 68.713 87.162 71.348 83.135 71.348H76.08L75.928 71.196V50.306L76.078 50.154H81.318H81.317ZM79.44 58.33H81.317C83.347 58.33 84.254 57.572 84.254 55.906C84.254 54.453 83.346 53.696 81.317 53.696H79.44V58.329V58.33ZM79.44 67.805H83.013C84.981 67.805 86.223 66.775 86.223 64.838C86.223 62.991 84.981 61.871 83.013 61.871H79.44V67.806V67.805ZM111.664 50.154L111.784 50.274V67.804H120.899L121.019 67.956V71.226L120.899 71.346H108.393L108.273 71.226V50.274L108.393 50.154H111.663H111.664ZM142.185 50.154L142.337 50.304V71.196L142.185 71.346H138.975L138.825 71.196V50.306L138.975 50.154H142.185ZM181.26 60.296C181.26 66.442 176.233 71.346 170.056 71.346C163.85 71.346 158.854 66.442 158.854 60.296C158.854 54.15 163.85 49.246 170.056 49.246C176.233 49.246 181.259 54.15 181.259 60.296H181.26ZM162.85 60.296C162.85 64.414 166.06 67.654 170.056 67.654C174.053 67.654 177.262 64.414 177.262 60.296C177.262 56.179 174.052 52.939 170.056 52.939C166.06 52.939 162.85 56.179 162.85 60.295V60.296ZM18.543 61.702C17.436 60.794 16.065 60.298 14.663 60.298C11.92 60.298 9.657 62.544 9.657 65.318C9.657 68.094 11.92 70.34 14.662 70.34C16.065 70.34 17.436 69.844 18.542 68.936L18.625 69.018V70.108C17.552 70.885 16.231 71.348 14.662 71.348C11.276 71.348 8.552 68.622 8.552 65.318C8.552 62.016 11.276 59.29 14.662 59.29C16.232 59.29 17.552 59.753 18.625 60.53V61.62L18.543 61.702ZM51.494 65.32C51.494 68.64 48.754 71.347 45.384 71.347C42.014 71.347 39.27 68.64 39.27 65.32C39.27 62 42.012 59.29 45.38 59.29C48.75 59.29 51.492 62 51.492 65.32H51.494ZM40.379 65.32C40.379 68.094 42.641 70.34 45.382 70.34C48.142 70.34 50.402 68.094 50.402 65.32C50.402 62.544 48.142 60.298 45.382 60.298C42.642 60.298 40.378 62.544 40.378 65.318L40.379 65.32ZM62.583 59.786L62.748 59.868L67.191 65.385L71.618 59.868L71.783 59.786H72.543L72.626 59.868V71.265L72.543 71.347H71.733L71.651 71.265V61.223L67.274 66.706H67.109L62.716 61.223V71.265L62.633 71.347H61.823L61.741 71.265V59.868L61.824 59.786H62.584H62.583ZM93.91 59.786L94.076 59.868L98.518 65.385L102.945 59.868L103.11 59.786H103.87L103.952 59.868V71.265L103.87 71.347H103.06L102.978 71.265V61.223L98.6 66.706H98.436L94.042 61.223V71.265L93.96 71.347H93.15L93.068 71.265V59.868L93.151 59.786H93.911H93.91ZM135.29 65.32C135.29 68.64 132.548 71.347 129.178 71.347C125.808 71.347 123.068 68.639 123.068 65.319C123.068 61.999 125.808 59.289 129.178 59.289C132.548 59.289 135.288 61.999 135.288 65.319L135.29 65.32ZM124.174 65.32C124.174 68.094 126.437 70.34 129.178 70.34C131.938 70.34 134.198 68.094 134.198 65.32C134.198 62.544 131.938 60.298 129.178 60.298C126.438 60.298 124.174 62.544 124.174 65.318V65.32ZM146.946 59.786L147.111 59.868L154.577 69.828V59.868L154.66 59.786H155.468L155.551 59.868V71.265L155.469 71.347H154.609L154.445 71.265L146.963 61.305V71.265L146.88 71.347H146.07L145.988 71.265V59.868L146.07 59.786H146.946ZM190.082 61.503C189.552 60.76 188.958 60.298 188.034 60.298C187.044 60.298 186.25 61.074 186.25 62.098C186.25 64.295 191.75 64.262 191.75 67.796C191.75 69.762 190.164 71.346 188.2 71.346C186.547 71.346 185.308 70.439 184.73 68.953L185.424 68.44H185.59C186.085 69.68 187.043 70.34 188.2 70.34C189.586 70.34 190.643 69.233 190.643 67.796C190.643 65.154 185.16 65.22 185.16 62.098C185.16 60.546 186.43 59.29 188.034 59.29C189.354 59.29 190.346 60.034 190.924 61.025L190.247 61.503H190.082ZM66 30H67.895V55.998H66V30ZM69 30H69.473V55.998H69V30ZM65 30H65.473V55.998H65V30ZM74 30H75.895V47.618H74V30ZM72 30H72.406V55.998H72V30ZM55 30H55.406V47.618H55V30ZM51 30H51.406V55.998H51V30ZM60 30H60.406V55.998H60V30ZM62 30H63.895V55.998H62V30ZM58 30H59.895V47.618H58V30ZM52 30H53.894V47.618H52V30ZM88 30H88.473V47.618H88V30ZM92 30H92.473V55.998H92V30ZM88.892 29.912V47.53H90.584V55.91H90.787V29.912H88.892ZM76 30H77.895V47.618H76V30ZM96 30H97.895V55.998H96V30ZM94 30H94.406V55.998H94V30ZM79 30H79.406V47.618H79V30ZM85 30H86.895V47.618H85V30ZM82 30H82.406V47.618H82V30ZM83 30H83.406V47.618H83V30ZM30 30H31.894V47.618H30V30ZM14 30H15.895V55.998H14V30ZM17 30H17.406V55.998H17V30ZM18.384 29.912V55.91H20.112V47.53H20.278V29.912H18.384ZM24 30H25.895V47.618H24V30ZM21 30H21.406V47.618H21V30ZM27 30H27.406V47.618H27V30ZM8 30H8.978V55.998H8V30ZM10 30H10.406V55.998H10V30ZM12 30H12.473V55.998H12V30ZM40 30H40.406V55.998H40V30ZM44 30H44.406V55.998H44V30ZM41 30H42.894V55.998H41V30ZM28 30H28.406V47.618H28V30ZM45 30H45.406V55.998H45V30ZM48 30H49.895V55.998H48V30ZM32 30H32.406V47.618H32V30ZM99 30H100.895V55.998H99V30ZM35 30H35.473V47.618H35V30ZM36.384 29.912V47.53H37.18V55.91H38.278V29.912H36.384ZM169 30H170.895V47.618H169V30ZM162 30H162.406V47.618H162V30ZM163 30H164.894V47.618H163V30ZM159 30H160.895V47.618H159V30ZM171 30H171.406V47.618H171V30ZM166 30H166.406V47.618H166V30ZM155 30H155.406V55.998H155V30ZM150.596 29.912V55.91H151.282V29.912H150.596ZM152 30H153.894V55.998H152V30ZM157 30H157.473V47.618H157V30ZM173 30H173.406V47.618H173V30ZM174 30H175.894V47.618H174V30ZM186 30H187.894V55.998H186V30ZM190 30H191.36V55.998H190V30ZM188 30H188.406V55.998H188V30ZM181 30H182.895V47.618H181V30ZM184 30H184.406V55.998H184V30ZM177 30H177.406V47.618H177V30ZM180 30H180.473V47.618H180V30ZM147 30H148.895V55.998H147V30Z" fill="black"/>
<path fill-rule="evenodd" clip-rule="evenodd" d="M114 30H114.473V55.998H114V30ZM123 30H124.895V55.998H123V30ZM117 30H117.406V55.998H117V30ZM102 30H102.406V55.998H102V30ZM122 30H122.473V55.998H122V30ZM119 30H120.895V55.998H119V30ZM145 30H145.406V55.998H145V30ZM110 30H111.895V47.618H110V30ZM103 30H103.473V55.998H103V30ZM105.674 29.912V55.91H106V47.53H106.08V29.912H105.674ZM108 30H109.895V47.618H108V30ZM113 30H113.406V47.618H113V30ZM141 30H141.406V47.618H141V30ZM138 30H139.895V47.618H138V30ZM142.687 29.912V47.53H144.539V55.91H144.579V29.912H142.686H142.687ZM136 30H136.406V55.998H136V30ZM131 30H131.406V55.998H131V30ZM128 30H128.406V55.998H128V30ZM130 30H130.406V55.998H130V30ZM133 30H134.895V55.998H133V30ZM126 30H126.473V55.998H126V30Z" fill="black"/>
</svg>
